assets/svgs/misc-grey/MiscGrey61.svg

<svg width="40" height="38" viewBox="0 0 40 38" fill="none" xmlns="http://www.w3.org/2000/svg">
<path fill-rule="evenodd" clip-rule="evenodd" d="M12.452 12.2099C11.442 12.2099 10.624 13.0299 10.624 14.0399C10.624 15.0499 11.442 15.8699 12.452 15.8699C13.461 15.8699 14.28 15.0499 14.28 14.0399C14.28 13.0299 13.461 12.2099 12.452 12.2099ZM20.813 12.2099C19.804 12.2099 18.985 13.0299 18.985 14.0399C18.985 15.0499 19.804 15.8699 20.813 15.8699C21.823 15.8699 22.642 15.0499 22.642 14.0399C22.642 13.0299 21.823 12.2099 20.813 12.2099ZM27.347 14.0399C27.347 13.0299 28.166 12.2099 29.175 12.2099C30.185 12.2099 31.003 13.0299 31.003 14.0399C31.003 15.0499 30.185 15.8699 29.175 15.8699C28.166 15.8699 27.347 15.0499 27.347 14.0399ZM36.982 24.7599C36.982 24.8599 36.788 25.0399 36.482 25.0399H18.732C18.708 25.0399 18.686 25.0499 18.662 25.0499C18.609 25.0499 18.557 25.0599 18.505 25.0699C18.458 25.0699 18.412 25.0799 18.366 25.0899C18.318 25.1099 18.272 25.1199 18.226 25.1399C18.179 25.1499 18.132 25.1699 18.087 25.1899C18.046 25.2099 18.006 25.2399 17.966 25.2599C17.919 25.2899 17.875 25.3199 17.831 25.3499C17.813 25.3599 17.792 25.3699 17.775 25.3899L9.23199 32.4699V26.5399C9.23199 25.7099 8.561 25.0399 7.73199 25.0399H3.98199C3.67699 25.0399 3.48199 24.8599 3.48199 24.7599V3.35995C3.48199 3.25995 3.67699 3.06995 3.98199 3.06995H36.482C36.788 3.06995 36.982 3.25995 36.982 3.35995V24.7599ZM36.482 0.0699463H3.98199C2.05299 0.0699463 0.481995 1.54995 0.481995 3.35995V24.7599C0.481995 26.5699 2.05299 28.0399 3.98199 28.0399H6.23199V35.6699C6.23199 36.2499 6.56799 36.7799 7.09499 37.0299C7.29799 37.1199 7.51599 37.1699 7.73199 37.1699C8.07599 37.1699 8.41599 37.0499 8.68999 36.8199L19.273 28.0399H36.482C38.412 28.0399 39.982 26.5699 39.982 24.7599V3.35995C39.982 1.54995 38.412 0.0699463 36.482 0.0699463Z" fill="#1A1919"/>
</svg>

<svg xmlns="http://www.w3.org/2000/svg" viewBox="0 0 40 38"><path fill-rule="evenodd" d="M12.452 12.21a1.83 1.83 0 10.002 3.658 1.83 1.83 0 00-.002-3.658zm8.361 0a1.83 1.83 0 000 3.66 1.83 1.83 0 000-3.66zm6.534 1.83a1.83 1.83 0 113.654-.002 1.83 1.83 0 01-3.654.002zm9.635 10.72c0 .1-.194.28-.5.28h-17.75c-.024 0-.046.01-.07.01a.833.833 0 00-.157.02.657.657 0 00-.139.02c-.048.02-.094.03-.14.05a.723.723 0 00-.139.05c-.041.02-.081.05-.121.07-.047.03-.091.06-.135.09-.018.01-.039.02-.056.04l-8.543 7.08v-5.93c0-.83-.671-1.5-1.5-1.5h-3.75c-.305 0-.5-.18-.5-.28V3.36c0-.1.195-.29.5-.29h32.5c.306 0 .5.19.5.29v21.4zm-.5-24.69h-32.5c-1.929 0-3.5 1.48-3.5 3.29v21.4c0 1.81 1.571 3.28 3.5 3.28h2.25v7.63c0 .58.336 1.11.863 1.36a1.49 1.49 0 001.595-.21l10.583-8.78h17.209c1.93 0 3.5-1.47 3.5-3.28V3.36c0-1.81-1.57-3.29-3.5-3.29z" clip-rule="evenodd"/></svg>
